images_sukapura_svg/cmd/32/spelling.svg

<svg viewBox="0 0 32 32" xmlns="http://www.w3.org/2000/svg"><g fill="#69696e" stroke-width=".424351"><path d="m9.8660783 13.585046h-5.0557469l-1.1354711 3.149482h-1.6410457l4.608189-12.0674881h1.3924024l4.616477 12.0674881h-1.632757zm-4.5750366-1.309521h4.1026143l-2.0554512-5.6442031z"/><path d="m21.626906 12.350118q0 2.055451-.944845 3.306955-.944845 1.243217-2.536162 1.243217-1.699062 0-2.62733-1.201776l-.07459 1.036014h-1.408982v-12.7305369h1.5333v4.7490869q.928269-1.1520473 2.561026-1.1520473 1.632758 0 2.561026 1.2349284.936557 1.2349279.936557 3.3815489zm-1.533301-.174051q0-1.566452-.605032-2.4201278-.605032-.8536753-1.740503-.8536753-1.516724 0-2.179773 1.4089791v3.878835q.70449 1.408979 2.196349 1.408979 1.102319 0 1.715639-.853676.61332-.853675.61332-2.569314z"/><path d="m27.146786 15.648785q.820523 0 1.433843-.497286.61332-.497287.679625-1.243217h1.450419q-.04144.770794-.530439 1.466996-.488998.696201-1.309521 1.110606-.812235.414406-1.723927.414406-1.831672 0-2.917414-1.218352-1.077455-1.226641-1.077455-3.348397v-.256931q0-1.309521.480711-2.3289589.48071-1.0194375 1.375826-1.5830289.903404-.5635915 2.130044-.5635915 1.508436 0 2.503009.903404 1.002861.9034039 1.069166 2.3455353h-1.450419q-.066305-.8702518-.663049-1.4255551-.588455-.5635915-1.458707-.5635915-1.168623 0-1.815096.8453872-.638184.8370994-.638184 2.4284164v.290084q0 1.549876.638184 2.386975.638184.837099 1.823384.837099z"/></g><path d="m30.091797 18.558594c-.164931-.0303-.34487-.03226-.525391.0039a.46440423.46440423 0 0 0 -.0039 0c-.359762.07602-.681249.269599-.916016.548828-.000589.000701-.0014.0013-.002.002l-7.01949 7.855428-2.287109-2.238281c-.642077-.627867-1.689903-.627751-2.332032 0-.641661.627393-.641689 1.681155 0 2.308593l3.511719 3.433594a.46440423.46440423 0 0 0 .0059.0059l.916015.859375a.46440423.46440423 0 0 0 .669922-.0332l.800781-.927735 8.183594-9.144531c.436846-.464993.442737-1.122793.228516-1.626953-.214222-.504161-.642829-.938924-1.230469-1.046875z" fill="#32d74b"/></svg>

<?xml version="1.0" encoding="UTF-8" standalone="no"?>
<svg
   xmlns:dc="http://purl.org/dc/elements/1.1/"
   xmlns:cc="http://creativecommons.org/ns#"
   xmlns:rdf="http://www.w3.org/1999/02/22-rdf-syntax-ns#"
   xmlns:svg="http://www.w3.org/2000/svg"
   xmlns="http://www.w3.org/2000/svg"
   xmlns:sodipodi="http://sodipodi.sourceforge.net/DTD/sodipodi-0.dtd"
   xmlns:inkscape="http://www.inkscape.org/namespaces/inkscape"
   viewBox="0 0 32 32"
   version="1.1"
   id="svg20"
   sodipodi:docname="spelling.svg"
   inkscape:version="0.92.3 (2405546, 2018-03-11)">
  <metadata
     id="metadata26">
    <rdf:RDF>
      <cc:Work
         rdf:about="">
        <dc:format>image/svg+xml</dc:format>
        <dc:type
           rdf:resource="http://purl.org/dc/dcmitype/StillImage" />
        <dc:title />
      </cc:Work>
    </rdf:RDF>
  </metadata>
  <defs
     id="defs24" />
  <sodipodi:namedview
     pagecolor="#ffffff"
     bordercolor="#666666"
     borderopacity="1"
     objecttolerance="10"
     gridtolerance="10"
     guidetolerance="10"
     inkscape:pageopacity="0"
     inkscape:pageshadow="2"
     inkscape:window-width="1366"
     inkscape:window-height="692"
     id="namedview22"
     showgrid="true"
     inkscape:zoom="14.75"
     inkscape:cx="25.311127"
     inkscape:cy="15.41691"
     inkscape:window-x="0"
     inkscape:window-y="0"
     inkscape:window-maximized="1"
     inkscape:current-layer="svg20">
    <inkscape:grid
       type="xygrid"
       id="grid820" />
  </sodipodi:namedview>
  <g
     aria-label="Abc"
     style="font-style:normal;font-weight:normal;font-size:16.97404861px;line-height:1.25;font-family:sans-serif;letter-spacing:0px;word-spacing:0px;fill:#69696e;fill-opacity:1;stroke:none;stroke-width:0.42435122"
     id="text824">
    <path
       d="M 9.8660783,13.585046 H 4.8103314 L 3.6748603,16.734528 H 2.0338146 L 6.6420036,4.6670399 H 8.034406 L 12.650883,16.734528 H 11.018126 Z M 5.2910417,12.275525 H 9.393656 L 7.3382048,6.6313219 Z"
       style="font-style:normal;font-variant:normal;font-weight:normal;font-stretch:normal;font-family:Roboto;-inkscape-font-specification:Roboto;fill:#69696e;fill-opacity:1;stroke-width:0.42435122"
       id="path829" />
    <path
       d="m 21.626906,12.350118 q 0,2.055451 -0.944845,3.306955 -0.944845,1.243217 -2.536162,1.243217 -1.699062,0 -2.62733,-1.201776 l -0.07459,1.036014 H 14.034997 V 4.0039911 h 1.5333 V 8.753078 q 0.928269,-1.1520473 2.561026,-1.1520473 1.632758,0 2.561026,1.2349284 0.936557,1.2349279 0.936557,3.3815489 z m -1.533301,-0.174051 q 0,-1.566452 -0.605032,-2.4201278 -0.605032,-0.8536753 -1.740503,-0.8536753 -1.516724,0 -2.179773,1.4089791 v 3.878835 q 0.70449,1.408979 2.196349,1.408979 1.102319,0 1.715639,-0.853676 0.61332,-0.853675 0.61332,-2.569314 z"
       style="font-style:normal;font-variant:normal;font-weight:normal;font-stretch:normal;font-family:Roboto;-inkscape-font-specification:Roboto;fill:#69696e;fill-opacity:1;stroke-width:0.42435122"
       id="path831" />
    <path
       d="m 27.146786,15.648785 q 0.820523,0 1.433843,-0.497286 0.61332,-0.497287 0.679625,-1.243217 h 1.450419 q -0.04144,0.770794 -0.530439,1.466996 -0.488998,0.696201 -1.309521,1.110606 -0.812235,0.414406 -1.723927,0.414406 -1.831672,0 -2.917414,-1.218352 -1.077455,-1.226641 -1.077455,-3.348397 V 12.07661 q 0,-1.309521 0.480711,-2.3289589 0.48071,-1.0194375 1.375826,-1.5830289 0.903404,-0.5635915 2.130044,-0.5635915 1.508436,0 2.503009,0.903404 1.002861,0.9034039 1.069166,2.3455353 H 29.260254 Q 29.193949,9.9797182 28.597205,9.4244149 28.00875,8.8608234 27.138498,8.8608234 q -1.168623,0 -1.815096,0.8453872 -0.638184,0.8370994 -0.638184,2.4284164 v 0.290084 q 0,1.549876 0.638184,2.386975 0.638184,0.837099 1.823384,0.837099 z"
       style="font-style:normal;font-variant:normal;font-weight:normal;font-stretch:normal;font-family:Roboto;-inkscape-font-specification:Roboto;fill:#69696e;fill-opacity:1;stroke-width:0.42435122"
       id="path833" />
  </g>
  <g
     style="fill:#696969;stroke:#e8e8e8;stroke-width:1.688401;stroke-linecap:round;stroke-linejoin:round;stroke-opacity:.992157"
     transform="matrix(1.1845524 0 0 1.1845524 1.815447 3.785371)"
     id="g8" />
  <path
     style="fill:#32d74b;fill-opacity:1"
     d="m 30.091797,18.558594 c -0.164931,-0.0303 -0.34487,-0.03226 -0.525391,0.0039 a 0.46440423,0.46440423 0 0 0 -0.0039,0 c -0.359762,0.07602 -0.681249,0.269599 -0.916016,0.548828 -5.89e-4,7.01e-4 -0.0014,0.0013 -0.002,0.002 L 21.625,26.96875 19.337891,24.730469 c -0.642077,-0.627867 -1.689903,-0.627751 -2.332032,0 -0.641661,0.627393 -0.641689,1.681155 0,2.308593 l 3.511719,3.433594 a 0.46440423,0.46440423 0 0 0 0.0059,0.0059 l 0.916015,0.859375 a 0.46440423,0.46440423 0 0 0 0.669922,-0.0332 l 0.800781,-0.927735 8.183594,-9.144531 c 0.436846,-0.464993 0.442737,-1.122793 0.228516,-1.626953 -0.214222,-0.504161 -0.642829,-0.938924 -1.230469,-1.046875 z"
     id="path18" />
</svg>
